X: 20
T:Rachael Rae
M:4/4
L:1/8
R:Reel
K:D
A|"D"D2 FA d2 Ac|"D"d2 fd "A7"e2 cA|"D"d2 AF "G"BAGF|"A7"EFGA "D"FDD:|!
|A|"D"defg "D7"a2fd|"G"g2 bg "A7"e2 cA|"D"defg "Bm"a2 fd|"A7"egfd "D"fd
dA|!
"D"defg "D7"fafd|"G"g2 bg "A7"e2 cA|"D"d2 AF "G"BAGF|"A7"EFGA "D"FDD||
